profile/logo-gh-hp.svg

<?xml version="1.0" encoding="UTF-8" standalone="no"?>
<svg
   viewBox="0 0 1000 500"
   version="1.1"
   id="svg365"
   sodipodi:docname="logo-gh-hp.svg"
   width="1000"
   height="500"
   inkscape:version="1.2 (dc2aedaf03, 2022-05-15)"
   xmlns:inkscape="http://www.inkscape.org/namespaces/inkscape"
   xmlns:sodipodi="http://sodipodi.sourceforge.net/DTD/sodipodi-0.dtd"
   xmlns="http://www.w3.org/2000/svg"
   xmlns:svg="http://www.w3.org/2000/svg"
   xmlns:bx="https://boxy-svg.com">
  <defs
     id="defs369" />
  <sodipodi:namedview
     id="namedview367"
     pagecolor="#ffffff"
     bordercolor="#000000"
     borderopacity="0.25"
     inkscape:showpageshadow="2"
     inkscape:pageopacity="0.0"
     inkscape:pagecheckerboard="0"
     inkscape:deskcolor="#d1d1d1"
     showgrid="false"
     inkscape:zoom="1.21"
     inkscape:cx="500"
     inkscape:cy="215.70248"
     inkscape:window-width="1920"
     inkscape:window-height="1009"
     inkscape:window-x="3832"
     inkscape:window-y="-8"
     inkscape:window-maximized="1"
     inkscape:current-layer="svg365" />
  <g
     id="g4101"
     transform="matrix(11.380328,0,0,-11.380328,-126.1661,2594.6183)">
    <title
       id="title359">hp</title>
    <circle
       style="fill:#ffffff"
       cx="54.700001"
       cy="205.92"
       r="19.530001"
       id="circle361" />
    <path
       d="M 66.51,211.89 H 63.4 l -4.35,-11.95 h 3.11 z M 54.69,186.38 c -0.19,0 -0.38,0.01 -0.58,0.01 l 4,10.97 h 5.49 c 0.96,0 2.02,0.75 2.35,1.65 l 4.33,11.9 c 0.71,1.95 -0.4,3.54 -2.48,3.54 h -7.62 l -6.39,-17.57 h -0.01 l -3.62,-9.97 c -8.6,2.05 -15,9.78 -15,19.01 0,8.96 6.03,16.51 14.26,18.81 l -3.74,-10.28 v 0 l -6.22,-17.09 h 4.14 l 5.29,14.52 H 52 l -5.29,-14.52 h 4.14 l 4.93,13.55 c 0.71,1.95 -0.41,3.54 -2.48,3.54 h -3.48 l 4,10.98 c 0.29,0.01 0.58,0.02 0.87,0.02 10.79,0 19.54,-8.74 19.54,-19.53 0,-10.79 -8.75,-19.54 -19.54,-19.54"
       style="fill:#1ea6e6;fill-opacity:1;fill-rule:nonzero;stroke:none"
       id="path4109"
       bx:origin="0.00001 1.000036" />
  </g>
</svg>

<?xml version="1.0" encoding="utf-8"?>
<svg viewBox="0 0 1000 300" xmlns="http://www.w3.org/2000/svg" xmlns:bx="https://boxy-svg.com">
  <g id="g4101" transform="matrix(7.67856, 0, 0, -7.67856, 80.02114, 1731.12903)" style="">
    <title>hp</title>
    <circle style="fill: rgb(255, 255, 255);" cx="54.7" cy="205.92" r="19.53"/>
    <path d="M 66.51 211.89 L 63.4 211.89 L 59.05 199.94 L 62.16 199.94 Z M 54.69 186.38 C 54.5 186.38 54.31 186.39 54.11 186.39 L 58.11 197.36 L 63.6 197.36 C 64.56 197.36 65.62 198.11 65.95 199.01 L 70.28 210.91 C 70.99 212.86 69.88 214.45 67.8 214.45 L 60.18 214.45 L 53.79 196.88 L 53.78 196.88 L 50.16 186.91 C 41.56 188.96 35.16 196.69 35.16 205.92 C 35.16 214.88 41.19 222.43 49.42 224.73 L 45.68 214.45 L 45.68 214.45 L 39.46 197.36 L 43.6 197.36 L 48.89 211.88 L 52 211.88 L 46.71 197.36 L 50.85 197.36 L 55.78 210.91 C 56.49 212.86 55.37 214.45 53.3 214.45 L 49.82 214.45 L 53.82 225.43 C 54.11 225.44 54.4 225.45 54.69 225.45 C 65.48 225.45 74.23 216.71 74.23 205.92 C 74.23 195.13 65.48 186.38 54.69 186.38" style="fill: rgb(30, 166, 230); fill-opacity: 1; fill-rule: nonzero; stroke: none; pointer-events: none;" id="path4109" bx:origin="0.00001 1.000036"/>
  </g>
</svg>
